_includes/icons/ios-cloud.svg

<svg fill="#666" height="50" viewBox="0 0 50 50" width="50" xmlns="http://www.w3.org/2000/svg"><path d="m29 8.53125c-5.214844 0-9.628906 3.121094-11.75 7.53125-1.128906-.777344-2.4375-1.34375-3.90625-1.34375-3.726562 0-6.699219 2.949219-6.90625 6.625-3.726562 1.34375-6.4375 4.820313-6.4375 9 0 5.328125 4.328125 9.65625 9.65625 9.65625h31.4375c4.90625 0 8.90625-4 8.90625-8.90625 0-4.550781-3.492187-8.167969-7.90625-8.6875.015625-.242187.0625-.46875.0625-.71875 0-7.25-5.90625-13.15625-13.15625-13.15625zm0 2c6.171875 0 11.15625 4.988281 11.15625 11.15625 0 .457031-.035156.90625-.09375 1.375l-.15625 1.125h1.1875c3.824219 0 6.90625 3.082031 6.90625 6.90625s-3.082031 6.90625-6.90625 6.90625h-31.4375c-4.25 0-7.65625-3.410156-7.65625-7.65625 0-3.535156 2.382813-6.511719 5.625-7.40625l.75-.1875-.03125-.8125c-.003906-.140625 0-.210937 0-.21875 0-2.777344 2.222656-5 5-5 1.390625 0 2.65625.558594 3.5625 1.46875l1.09375 1.125.53125-1.46875c1.574219-4.25 5.660156-7.3125 10.46875-7.3125z"/></svg>

<svg xmlns="http://www.w3.org/2000/svg" viewBox="0 0 50 50" width="50" height="50" fill="#666"><path d="M 29 8.53125 C 23.785156 8.53125 19.371094 11.652344 17.25 16.0625 C 16.121094 15.285156 14.8125 14.71875 13.34375 14.71875 C 9.617188 14.71875 6.644531 17.667969 6.4375 21.34375 C 2.710938 22.6875 0 26.164063 0 30.34375 C 0 35.671875 4.328125 40 9.65625 40 L 41.09375 40 C 46 40 50 36 50 31.09375 C 50 26.542969 46.507813 22.925781 42.09375 22.40625 C 42.109375 22.164063 42.15625 21.9375 42.15625 21.6875 C 42.15625 14.4375 36.25 8.53125 29 8.53125 Z M 29 10.53125 C 35.171875 10.53125 40.15625 15.519531 40.15625 21.6875 C 40.15625 22.144531 40.121094 22.59375 40.0625 23.0625 L 39.90625 24.1875 L 41.09375 24.1875 C 44.917969 24.1875 48 27.269531 48 31.09375 C 48 34.917969 44.917969 38 41.09375 38 L 9.65625 38 C 5.40625 38 2 34.589844 2 30.34375 C 2 26.808594 4.382813 23.832031 7.625 22.9375 L 8.375 22.75 L 8.34375 21.9375 C 8.339844 21.796875 8.34375 21.726563 8.34375 21.71875 C 8.34375 18.941406 10.566406 16.71875 13.34375 16.71875 C 14.734375 16.71875 16 17.277344 16.90625 18.1875 L 18 19.3125 L 18.53125 17.84375 C 20.105469 13.59375 24.191406 10.53125 29 10.53125 Z"/></svg>
